X:1
T:An Wasserflüssen Babylon
T:An Wasserflüssen Babylon
T:Attributed to Wolfgang Dachstein, 1525
T:Public Domain Courtesy of the Cyber Hymnal™
C:Attributed to Wolfgang Dachstein, 1525
Z:Public Domain
Z:Courtesy of the Cyber Hymnal™
%%score ( 1 2 ) ( 3 4 )
L:1/8
Q:1/4=130
M:4/4
K:F
V:1 treble 
V:2 treble 
V:3 bass 
V:4 bass 
V:1
 [Fc]4 [Fd]2 [Ec]2 | [FA]4 c4 | [FB]2 [EB]2 [FA]4 | [EG]4 [FA]2 [FB]2 | [Fc]4 (B2 A2) | G4 F4 | %6
 [Fc]4 [Fd]2 [Ec]2 | [FA]4 c4 | [FB]2 [EB]2 [FA]4 | [EG]4 [FA]2 [FB]2 | [Fc]4 (B2 A2) | G4 F4 | %12
 [CF]4 [CG]2 [CA]2 | [DB]4 [CG]4 | [CA]2 [CG]2 [CF]4 | [DF]4 [FA]2 [FB]2 | [Ec]4 [Fd]4 | %17
 [FA]2 [F=B]2 [Ec]4 | z4 [FA]4 | [Fc]2 [Fd]2 [Ec]2 [DA]2 | [DB]4 [DA]4 | [Fd]4 [Gd]2 [Fd]2 | %22
 [_EG]4 [Ec]4 | [DB]4 [DA]4 | [B,G]4 z4 | [DB]4 [FA]2 [EG]2 | [DF]4 [DG]4 | (E2 F2) D4 | C4 C4 | %29
 [DF]2 [EG]2 [FA]2 [FB]2 | c3 B [CA]2 [DB]2 x2 | [CG]4 [A,F]4 |] %32
V:2
 x8 | x4 (E2 F2) | x8 | x8 | x4 F4 | (F2 E2) x4 | x8 | x4 (E2 F2) | x8 | x8 | x4 F4 | (F2 E2) x4 | %12
 x8 | x8 | x8 | x8 | x8 | x8 | x8 | x8 | x8 | x8 | x8 | x8 | x8 | x8 | x8 | C4 (C2 =B,2) | x8 | %29
 x8 | E4 x6 | x8 |] %32
V:3
 [F,A,]4 [B,,B,]2 [C,G,]2 | [D,F,]4 [A,,C]4 | [G,,D]2 [G,,B,]2 [F,,C]4 | [C,C]4 [F,C]2 [D,D]2 | %4
 [A,,C]4 [B,,D]2 [F,C]2 | [C,C]4 [F,,A,]4 | [F,A,]4 [B,,B,]2 [C,G,]2 | [D,F,]4 [A,,C]4 | %8
 [G,,D]2 [G,,B,]2 [F,,C]4 | [C,C]4 [F,C]2 [D,D]2 | [A,,C]4 ([B,,D]2 [F,C]2) | [C,C]4 [F,,A,]4 | %12
 [F,A,]4 [E,G,]2 F,2 | [B,,F,]4 [C,E,]4 | F,2 [E,G,]2 [F,A,]4 | [B,,B,]4 [F,C]2 [D,F,]2 | %16
 [C,G,]4 [B,,B,]4 | [D,A,]2 [D,F,]2 [C,G,]4 | z4 [D,F,]4 | [A,,C]2 [B,,B,]2 [C,G,]2 [D,^F,]2 | %20
 [G,,G,]4 [D,^F,]4 | [B,,B,]4 [B,,B,]2 [D,A,]2 | [C,C]4 [C,G,]4 | [D,G,]4 (G,2 ^F,2) | %24
 [G,,G,]4 z4 | [G,,G,]4 [A,,C]2 [C,C]2 | [D,A,]4 [G,,B,]4 | A,4 [G,,G,]4 | [C,E,]4 [F,A,]4 | %29
 [D,A,]2 [C,C]2 [F,C]2 [D,F,]2 | ([C,G,]4 z2 x4 | F,2 E,2) [F,,F,]4 |] %32
V:4
 x8 | x8 | x8 | x8 | x8 | x8 | x8 | x8 | x8 | x8 | x8 | x8 | x8 | x8 | x8 | x8 | x8 | x8 | x8 | %19
 x8 | x8 | x8 | x8 | x4 D,4 | x8 | x8 | x8 | (A,,2 F,,2) x4 | x8 | x8 | x4 F,4 B,,2 | C,4 x4 |] %32

